X:1082
T:I Do Like To Be Beside The Seaside 
C:Joe Buchanan's Scottish Tome - Page 466.3
I:466 3
R:Folk
Z:Carl Allison
L:1/8
M:4/4
K:F
"C7"c>^c | "F"d2 c>A GF EF | "C7"c2 c4 c2 | "F"d2 cA GF EF | "Bb"d6 d2 |
"C7"e2 d>B A>G ^F>G | "F"d2 c2 B2 "D7"A>F | "G"A2 G2 A2 ((3G^FG) | "C7"A2 G2 E2 c2 |
"F"d2 c>A G>F E>F | "C7"c2 c6 | "F"d2 c>A G>F E>F | "Bb/D/Gm"d6 ^c>d |
"E7"e>d e>d e2 =d>=B | "Am"d>c d>c "D"d>c B>A | "Gm"G2 d2- d>A G>A | "F"F6 |

